public/cards/2_yellow.svg

<svg xmlns="http://www.w3.org/2000/svg" width="242" height="362" fill="none"><path fill="#fff" stroke="#000" stroke-width="2" d="M201 1H41C18.909 1 1 18.909 1 41v280c0 22.091 17.909 40 40 40h160c22.091 0 40-17.909 40-40V41c0-22.091-17.909-40-40-40z"/><path fill="#FA0" d="M201 21H41c-11.046 0-20 8.954-20 20v280c0 11.046 8.954 20 20 20h160c11.046 0 20-8.954 20-20V41c0-11.046-8.954-20-20-20z"/><path fill="#fff" fill-rule="evenodd" d="M181 81C92.634 81 21 152.634 21 241c0 22.091 17.909 40 40 40 88.366 0 160-71.634 160-160 0-22.091-17.909-40-40-40z" clip-rule="evenodd"/><path fill="#FA0" d="M117 121c-22.16 0-40 17.84-40 40v4h20v-4c0-11.08 8.92-20 20-20s20 8.92 20 20c0 4.51-3.742 13.361-7.65 16.436-21.219 16.7-20.995 13.942-52.35 35.564v28h80v-28h-20v8h-36c24.76-17.435 26.571-17.012 45.972-34.375C153.189 181.062 157 170.021 157 161c0-22.16-17.84-40-40-40z"/><path fill="#fff" d="M51 31c-11.08 0-20 8.92-20 20v2h10v-2c0-5.54 4.46-10 10-10s10 4.46 10 10c0 2.255-1.871 6.68-3.825 8.218C46.565 67.568 46.678 66.188 31 77v14h40V77H61v4H43c12.38-8.718 13.285-8.506 22.986-17.188C69.094 61.032 71 55.51 71 51c0-11.08-8.92-20-20-20zm140 300c11.08 0 20-8.92 20-20v-2h-10v2c0 5.54-4.46 10-10 10s-10-4.46-10-10c0-2.255 1.871-6.68 3.825-8.218 10.609-8.35 10.498-6.971 26.175-17.782v-14h-40v14h10v-4h18c-12.38 8.717-13.285 8.506-22.986 17.187C172.906 300.969 171 306.49 171 311c0 11.08 8.92 20 20 20z"/></svg>

<svg width="242" height="362" viewBox="0 0 242 362" fill="none" xmlns="http://www.w3.org/2000/svg">
<path d="M201 1H41C18.9086 1 1 18.9086 1 41V321C1 343.091 18.9086 361 41 361H201C223.091 361 241 343.091 241 321V41C241 18.9086 223.091 1 201 1Z" fill="white" stroke="black" stroke-width="2"/>
<path d="M201 21H41C29.9543 21 21 29.9543 21 41V321C21 332.046 29.9543 341 41 341H201C212.046 341 221 332.046 221 321V41C221 29.9543 212.046 21 201 21Z" fill="#FFAA00"/>
<path fill-rule="evenodd" clip-rule="evenodd" d="M181 81C92.6344 81 21 152.634 21 241C21 263.091 38.9086 281 61 281C149.366 281 221 209.366 221 121C221 98.9086 203.091 81 181 81Z" fill="white"/>
<path d="M117 121C94.84 121 77 138.84 77 161V165H97V161C97 149.92 105.92 141 117 141C128.08 141 137 149.92 137 161C137 165.51 133.258 174.361 129.35 177.436C108.131 194.136 108.355 191.378 77 213V241H117H157V221V213H137V221H117H101C125.76 203.565 127.571 203.988 146.972 186.625C153.189 181.062 157 170.021 157 161C157 138.84 139.16 121 117 121Z" fill="#FFAA00"/>
<path d="M51 31C39.92 31 31 39.92 31 51V53H41V51C41 45.46 45.46 41 51 41C56.54 41 61 45.46 61 51C61 53.255 59.129 57.6803 57.1751 59.218C46.5655 67.5679 46.6775 66.1889 31 77V91H51H71V81V77H61V81H51H43C55.3801 72.2825 56.2854 72.4938 65.9861 63.8125C69.0943 61.031 71 55.5104 71 51C71 39.92 62.08 31 51 31Z" fill="white"/>
<path d="M191 331C202.08 331 211 322.08 211 311V309H201V311C201 316.54 196.54 321 191 321C185.46 321 181 316.54 181 311C181 308.745 182.871 304.32 184.825 302.782C195.434 294.432 195.323 295.811 211 285V271H191H171V281V285H181V281H191H199C186.62 289.717 185.715 289.506 176.014 298.187C172.906 300.969 171 306.49 171 311C171 322.08 179.92 331 191 331Z" fill="white"/>
</svg>
